X:11
T:Sporting Nell
D:Mick O'Brien: May Morning Dew (1996)
Z:GwenaÃ«l Lambrouin, 2016-12, d'aprÃ¨s l'interprÃ©tation de Cyrille 
R:reel
M:2/2
K:Dmix
Q:1/2=90
| C8 | C4 C4 |
%
|: ADED A2dc | ABAG EFG2 | ADED A2dc |1 AcGE EDEG :|2 AcGE EDD2 | 
K:Amix
  cdec d2ed | cdef gedB | cdec dfed | cAGE EDD2 |
  cdec dfed | cdef g2gd | eaag efd=c | ABAG EFG2 ||
%
K:Dmix
|: ADED A2dc | ABAG EFG2 | ADED A2dc |1 AcGE EDEG :|2 AcGE EDD2 | 
K:Amix
  cdec d2ed | cdef gedB | cdec dfed | cAGE EDD2 |
  cdec dfed | cdef g2gd | eaag efd=c | ABAG EFG2 ||
%
K:Dmix
|: ADED A2dc | ABAG EFG2 | ADED A2dc |1 AcGE EDEG :|2 AcGE EDD2 | 
K:Amix
  cdec d2ed | cdef gedB | cdec dfed | cAGE EDD2 |
  cdec dfed | cdef g2gd | eaag efd=c | ABAG EFG2 ||
%
K:Dmix
|: ADED A2dc | ABAG EFG2 | ADED A2dc |1 AcGE EDEG :|2 AcGE EDD2 | 
K:Amix
  cdec d2ed | cdef gedB | cdec dfed | cAGE EDD2 |
  cdec dfed | cdef g2gd | eaag efd=c | ABAG EFG2 ||
%
K:Dmix
|: ADED A2dc | ABAG EFG2 | ADED A2dc |1 AcGE EDEG :|2 AcGE EDD2 | 
K:Amix
  cdec d2ed | cdef gedB | cdec dfed | cAGE EDD2 |
  cdec dfed | cdef g2gd | eaag efd=c | ABAG EFG2 ||
%

